icons/target.svg

<svg width="24" height="24" viewBox="0 0 24 24" fill="none" xmlns="http://www.w3.org/2000/svg">
<path fill-rule="evenodd" clip-rule="evenodd" d="M12.75 3C12.75 2.58579 12.4142 2.25 12 2.25C11.5858 2.25 11.25 2.58579 11.25 3V4.28582C7.5685 4.63935 4.63935 7.5685 4.28582 11.25H3C2.58579 11.25 2.25 11.5858 2.25 12C2.25 12.4142 2.58579 12.75 3 12.75H4.28582C4.63935 16.4315 7.5685 19.3607 11.25 19.7142V21C11.25 21.4142 11.5858 21.75 12 21.75C12.4142 21.75 12.75 21.4142 12.75 21V19.7142C16.4315 19.3607 19.3607 16.4315 19.7142 12.75H21C21.4142 12.75 21.75 12.4142 21.75 12C21.75 11.5858 21.4142 11.25 21 11.25H19.7142C19.3607 7.5685 16.4315 4.63935 12.75 4.28582V3ZM11.25 5.79454V7C11.25 7.41421 11.5858 7.75 12 7.75C12.4142 7.75 12.75 7.41421 12.75 7V5.79454C15.6023 6.13565 17.8644 8.39773 18.2055 11.25H17C16.5858 11.25 16.25 11.5858 16.25 12C16.25 12.4142 16.5858 12.75 17 12.75H18.2055C17.8644 15.6023 15.6023 17.8644 12.75 18.2055V17C12.75 16.5858 12.4142 16.25 12 16.25C11.5858 16.25 11.25 16.5858 11.25 17V18.2055C8.39773 17.8644 6.13565 15.6023 5.79454 12.75H7C7.41421 12.75 7.75 12.4142 7.75 12C7.75 11.5858 7.41421 11.25 7 11.25H5.79454C6.13565 8.39773 8.39773 6.13565 11.25 5.79454Z" fill="black"/>
</svg>

<svg xmlns="http://www.w3.org/2000/svg" fill="none" viewBox="0 0 24 24">
  <path fill="#000" fill-rule="evenodd" d="M12.75 3a.75.75 0 0 0-1.5 0v1.286a7.752 7.752 0 0 0-6.964 6.964H3a.75.75 0 0 0 0 1.5h1.286a7.752 7.752 0 0 0 6.964 6.964V21a.75.75 0 0 0 1.5 0v-1.286a7.752 7.752 0 0 0 6.964-6.964H21a.75.75 0 0 0 0-1.5h-1.286a7.752 7.752 0 0 0-6.964-6.964V3Zm-1.5 2.795V7a.75.75 0 0 0 1.5 0V5.795a6.253 6.253 0 0 1 5.456 5.455H17a.75.75 0 0 0 0 1.5h1.206a6.253 6.253 0 0 1-5.456 5.456V17a.75.75 0 0 0-1.5 0v1.206a6.253 6.253 0 0 1-5.455-5.456H7a.75.75 0 0 0 0-1.5H5.795a6.253 6.253 0 0 1 5.455-5.455Z" clip-rule="evenodd"/>
</svg>
